static/assets/template/assets/img/icons/essential/detailed/Package.svg

<svg height="106" viewBox="0 0 152 106" width="152" xmlns="http://www.w3.org/2000/svg"><g fill="none" fill-rule="evenodd" transform="translate(1 1)"><g stroke-linecap="round" stroke-linejoin="round" stroke-width="3" transform="translate(0 103)"><path d="m1.8.4h-1"/><path d="m28.7.4h-23.1"/><path d="m33.7.4h-.9"/><path d="m110.1.4h-71.4"/><path d="m143.5.4h-29.3"/><path d="m148.7.4h-1.5"/></g><g transform="translate(22)"><g fill-rule="nonzero"><path d="m103.5 6.4v91.2c0 3.2-2.6 5.9-5.9 5.9h-91.2c-3.2 0-5.9-2.6-5.9-5.9v-91.2c0-3.2 2.6-5.9 5.9-5.9h91.2c3.3 0 5.9 2.6 5.9 5.9z"/><path d="m103.5 9.6v88.2c0 3.1-2.5 5.7-5.5 5.7h-86.4c-1.4 0-2.7-.6-3.7-1.5-1.1-1-1.8-2.5-1.8-4.2v-88.2c0-3.1 2.5-5.7 5.5-5.7h86.4c3.1 0 5.5 2.6 5.5 5.7z"/><path d="m103.5 46.8v50.9c0 3.1-2.5 5.7-5.5 5.7h-86.4c-1.4 0-2.7-.6-3.7-1.5 59.5-6.1 84.3-29.5 95.6-55.1z"/></g><path d="m31 .5h66.7c3.2 0 5.9 2.6 5.9 5.9v91.2c0 3.2-2.6 5.9-5.9 5.9h-91.2c-3.2 0-5.9-2.6-5.9-5.9v-91.2c0-3.2 2.6-5.9 5.9-5.9h7.6" stroke-linecap="round" stroke-linejoin="round" stroke-width="3"/><path d="m19.2.5h.5" stroke-linecap="round" stroke-linejoin="round" stroke-width="3"/><path d="m40.1 4.3h24.2v24.6l-6.9 5.9-9.7-5.9-7.9 5.9" fill-rule="nonzero"/><path d="m40.1.5h24.2v28.4l-6.9 5.9-9.7-5.9-7.9 5.9" stroke-linecap="round" stroke-linejoin="round" stroke-width="3"/><g stroke-linecap="round" stroke-linejoin="round" stroke-width="3" transform="translate(57 65)"><path d="m6.9 19.2h-4.5"/><path d="m9.9 7.9h6v-6.1c0-1.1 1.3-1.7 2.1-1l13.6 11.6c.7.6.7 1.6 0 2.2l-13.6 11.6c-.8.7-2.1.1-2.1-1v-6.1h-4.9"/><path d="m3.9 7.9h2.1"/><path d="m.2 7.9h.2"/></g></g><path d="m61.7 35.1v-28.6" stroke-linecap="round" stroke-linejoin="round" stroke-width="3"/></g></svg>

<?xml version="1.0" encoding="UTF-8"?>
<svg width="152px" height="106px" viewBox="0 0 152 106" version="1.1" xmlns="http://www.w3.org/2000/svg" xmlns:xlink="http://www.w3.org/1999/xlink">
    <!-- Generator: Sketch 51.2 (57519) - http://www.bohemiancoding.com/sketch -->
    <title>Package</title>
    <desc>Created with Sketch.</desc>
    <defs></defs>
    <g id="Page-1" stroke="none" stroke-width="1" fill="none" fill-rule="evenodd">
        <g id="Package" transform="translate(1.000000, 1.000000)">
            <g id="Group" transform="translate(0.000000, 103.000000)" class="stroke-primary-300" stroke-linecap="round" stroke-linejoin="round" stroke-width="3">
                <path d="M1.8,0.4 L0.8,0.4" id="Shape"></path>
                <path d="M28.7,0.4 L5.6,0.4" id="Shape"></path>
                <path d="M33.7,0.4 L32.8,0.4" id="Shape"></path>
                <path d="M110.1,0.4 L38.7,0.4" id="Shape"></path>
                <path d="M143.5,0.4 L114.2,0.4" id="Shape"></path>
                <path d="M148.7,0.4 L147.2,0.4" id="Shape"></path>
            </g>
            <g id="Group" transform="translate(22.000000, 0.000000)">
                <path d="M103.5,6.4 L103.5,97.6 C103.5,100.8 100.9,103.5 97.6,103.5 L6.4,103.5 C3.2,103.5 0.5,100.9 0.5,97.6 L0.5,6.4 C0.5,3.2 3.1,0.5 6.4,0.5 L97.6,0.5 C100.9,0.5 103.5,3.1 103.5,6.4 Z" id="Shape" class="fill-neutral" fill-rule="nonzero"></path>
                <path d="M103.5,9.6 L103.5,97.8 C103.5,100.9 101,103.5 98,103.5 L11.6,103.5 C10.2,103.5 8.9,102.9 7.9,102 C6.8,101 6.1,99.5 6.1,97.8 L6.1,9.6 C6.1,6.5 8.6,3.9 11.6,3.9 L98,3.9 C101.1,3.9 103.5,6.5 103.5,9.6 Z" id="Shape" class="fill-primary-100" fill-rule="nonzero"></path>
                <path d="M103.5,46.8 L103.5,97.7 C103.5,100.8 101,103.4 98,103.4 L11.6,103.4 C10.2,103.4 8.9,102.8 7.9,101.9 C67.4,95.8 92.2,72.4 103.5,46.8 Z" id="Shape" class="fill-primary-200" fill-rule="nonzero"></path>
                <path d="M31,0.5 L97.7,0.5 C100.9,0.5 103.6,3.1 103.6,6.4 L103.6,97.6 C103.6,100.8 101,103.5 97.7,103.5 L6.5,103.5 C3.3,103.5 0.6,100.9 0.6,97.6 L0.6,6.4 C0.6,3.2 3.2,0.5 6.5,0.5 L14.1,0.5" id="Shape" class="stroke-primary" stroke-width="3" stroke-linecap="round" stroke-linejoin="round"></path>
                <path d="M19.2,0.5 L19.7,0.5" id="Shape" class="stroke-primary" stroke-width="3" stroke-linecap="round" stroke-linejoin="round"></path>
                <polyline id="Shape" class="fill-primary-300" fill-rule="nonzero" points="40.1 4.3 64.3 4.3 64.3 28.9 57.4 34.8 47.7 28.9 39.8 34.8"></polyline>
                <polyline id="Shape" class="stroke-primary" stroke-width="3" stroke-linecap="round" stroke-linejoin="round" points="40.1 0.5 64.3 0.5 64.3 28.9 57.4 34.8 47.7 28.9 39.8 34.8"></polyline>
                <g transform="translate(57.000000, 65.000000)" id="Shape" class="stroke-primary" stroke-linecap="round" stroke-linejoin="round" stroke-width="3">
                    <path d="M6.9,19.2 L2.4,19.2"></path>
                    <path d="M9.9,7.9 L15.9,7.9 L15.9,1.8 C15.9,0.7 17.2,0.1 18,0.8 L31.6,12.4 C32.3,13 32.3,14 31.6,14.6 L18,26.2 C17.2,26.9 15.9,26.3 15.9,25.2 L15.9,19.1 L11,19.1"></path>
                    <path d="M3.9,7.9 L6,7.9"></path>
                    <path d="M0.2,7.9 L0.4,7.9"></path>
                </g>
            </g>
            <path d="M61.7,35.1 L61.7,6.5" id="Shape" class="stroke-primary" stroke-width="3" stroke-linecap="round" stroke-linejoin="round"></path>
        </g>
    </g>
</svg>
